; generated by Slic3r 1.0.1 on 2015-01-06 at 08:37:51

; layer_height = 0.2
; perimeters = 2
; top_solid_layers = 3
; bottom_solid_layers = 3
; fill_density = 0.2
; perimeter_speed = 40
; infill_speed = 70
; travel_speed = 130
; nozzle_diameter = 0.4
; filament_diameter = 1.76
; extrusion_multiplier = 1.22
; perimeters extrusion width = 0.44mm
; infill extrusion width = 0.44mm
; solid infill extrusion width = 0.44mm
; top infill extrusion width = 0.44mm
; first layer extrusion width = 0.40mm

G21 ; set units to millimeters
M107
M190 S60 ; wait for bed temperature to be reached
M104 S190 ; set temperature
M42 P5 S225; Turn ON G-Head+Electronic case fans
G28; home all axes
M109 S190 ; wait for temperature to be reached
G90 ; use absolute coordinates
G92 E0
M82 ; use absolute distances for extrusion
G1 Z0.200 F7800.000
G1 F900.000 E-3.00000
G92 E0
G1 X71.130 Y70.150 F7800.000
G1 E3.00000 F900.000
G1 X72.310 Y69.410 E3.05588 F720.000
G1 X73.620 Y68.960 E3.11145
G1 X75.000 Y68.800 E3.16718
G1 X125.000 Y68.800 E5.17306
G1 X126.380 Y68.960 E5.22879
G1 X127.690 Y69.410 E5.28436
G1 X128.870 Y70.150 E5.34024
G1 X129.850 Y71.130 E5.39584
G1 X130.590 Y72.310 E5.45171
G1 X131.040 Y73.620 E5.50728
G1 X131.200 Y75.000 E5.56301
G1 X131.200 Y125.000 E7.56889
G1 X131.040 Y126.380 E7.62463
G1 X130.590 Y127.690 E7.68019
G1 X129.850 Y128.870 E7.73607
G1 X128.870 Y129.850 E7.79167
G1 X127.690 Y130.590 E7.84755
G1 X126.380 Y131.040 E7.90312
G1 X125.000 Y131.200 E7.95885
G1 X75.000 Y131.200 E9.96473
G1 X73.620 Y131.040 E10.02046
G1 X72.310 Y130.590 E10.07603
G1 X71.130 Y129.850 E10.13191
G1 X70.150 Y128.870 E10.18751
G1 X69.410 Y127.690 E10.24338
G1 X68.960 Y126.380 E10.29895
G1 X68.800 Y125.000 E10.35469
G1 X68.800 Y75.000 E12.36056
G1 X68.960 Y73.620 E12.41630
G1 X69.410 Y72.310 E12.47187
G1 X70.150 Y71.130 E12.52774
G1 X71.088 Y70.192 E12.58094
G1 X71.380 Y70.470 F7800.000
G1 X72.480 Y69.770 E12.63324 F720.000
G1 X73.710 Y69.350 E12.68539
G1 X75.000 Y69.200 E12.73749
G1 X125.000 Y69.200 E14.74336
G1 X126.290 Y69.350 E14.79546
G1 X127.520 Y69.770 E14.84761
G1 X128.620 Y70.470 E14.89991
G1 X129.530 Y71.380 E14.95154
G1 X130.230 Y72.480 E15.00385
G1 X130.650 Y73.710 E15.05599
G1 X130.800 Y75.000 E15.10809
G1 X130.800 Y125.000 E17.11397
G1 X130.650 Y126.290 E17.16607
G1 X130.230 Y127.520 E17.21821
G1 X129.530 Y128.620 E17.27052
G1 X128.620 Y129.530 E17.32215
G1 X127.520 Y130.230 E17.37445
G1 X126.290 Y130.650 E17.42660
G1 X125.000 Y130.800 E17.47870
G1 X75.000 Y130.800 E19.48458
G1 X73.710 Y130.650 E19.53668
G1 X72.480 Y130.230 E19.58882
G1 X71.380 Y129.530 E19.64112
G1 X70.470 Y128.620 E19.69275
G1 X69.770 Y127.520 E19.74506
G1 X69.350 Y126.290 E19.79720
G1 X69.200 Y125.000 E19.84930
G1 X69.200 Y75.000 E21.85518
G1 X69.350 Y73.710 E21.90728
G1 X69.770 Y72.480 E21.95942
G1 X70.470 Y71.380 E22.01173
G1 X71.338 Y70.512 E22.06095
G1 X71.630 Y70.780 F7800.000
G1 X72.660 Y70.130 E22.10981 F720.000
G1 X73.800 Y69.740 E22.15815
G1 X75.000 Y69.600 E22.20662
G1 X125.000 Y69.600 E24.21250
G1 X126.200 Y69.740 E24.26096
G1 X127.340 Y70.130 E24.30930
G1 X128.370 Y70.780 E24.35816
G1 X129.220 Y71.630 E24.40639
G1 X129.870 Y72.660 E24.45525
G1 X130.260 Y73.800 E24.50358
G1 X130.400 Y75.000 E24.55205
G1 X130.400 Y125.000 E26.55793
G1 X130.260 Y126.200 E26.60640
G1 X129.870 Y127.340 E26.65473
G1 X129.220 Y128.370 E26.70359
G1 X128.370 Y129.220 E26.75182
G1 X127.340 Y129.870 E26.80068
G1 X126.200 Y130.260 E26.84902
G1 X125.000 Y130.400 E26.89748
G1 X75.000 Y130.400 E28.90336
G1 X73.800 Y130.260 E28.95183
G1 X72.660 Y129.870 E29.00017
G1 X71.630 Y129.220 E29.04903
G1 X70.780 Y128.370 E29.09725
G1 X70.130 Y127.340 E29.14611
G1 X69.740 Y126.200 E29.19445
G1 X69.600 Y125.000 E29.24292
G1 X69.600 Y75.000 E31.24879
G1 X69.740 Y73.800 E31.29726
G1 X70.130 Y72.660 E31.34560
G1 X70.780 Y71.630 E31.39446
G1 X71.588 Y70.822 E31.44028
G1 F900.000 E28.44028
G92 E0
G1 X75.600 Y75.600 F7800.000
G1 E3.00000 F900.000
G1 X124.400 Y75.600 E4.95774 F720.000
G1 X124.400 Y124.400 E6.91547
G1 X75.600 Y124.400 E8.87321
G1 X75.600 Y75.660 E10.82854
G1 X75.200 Y75.200 F7800.000
G1 X124.800 Y75.200 E12.81837 F540.000
G1 X124.800 Y124.800 E14.80821
G1 X75.200 Y124.800 E16.79804
G1 X75.200 Y75.260 E18.78546
G1 X75.546 Y75.400 F7800.000
G1 X124.100 Y75.880 F7800.000
G1 X124.120 Y75.900 E18.78660 F1260.000
G1 X124.120 Y76.467 E18.80942
G1 X123.533 Y75.880 E18.84284
G1 X122.965 Y75.880 E18.86566
G1 X124.120 Y77.035 E18.93135
G1 X124.120 Y77.602 E18.95417
G1 X122.398 Y75.880 E19.05214
G1 X121.831 Y75.880 E19.07497
G1 X124.120 Y78.169 E19.20521
G1 X124.120 Y78.736 E19.22804
G1 X121.264 Y75.880 E19.39056
G1 X120.696 Y75.880 E19.41338
G1 X124.120 Y79.304 E19.60818
G1 X124.120 Y79.871 E19.63100
G1 X120.129 Y75.880 E19.85808
G1 X119.562 Y75.880 E19.88090
G1 X124.120 Y80.438 E20.14026
G1 X124.120 Y81.006 E20.16308
G1 X118.994 Y75.880 E20.45471
G1 X118.427 Y75.880 E20.47753
G1 X124.120 Y81.573 E20.80144
G1 X124.120 Y82.140 E20.82426
G1 X117.860 Y75.880 E21.18045
G1 X117.292 Y75.880 E21.20327
G1 X124.120 Y82.708 E21.59173
G1 X124.120 Y83.275 E21.61455
G1 X116.725 Y75.880 E22.03529
G1 X116.158 Y75.880 E22.05812
G1 X124.120 Y83.842 E22.51113
G1 X124.120 Y84.409 E22.53395
G1 X115.591 Y75.880 E23.01924
G1 X115.023 Y75.880 E23.04207
G1 X124.120 Y84.977 E23.55964
G1 X124.120 Y85.544 E23.58246
G1 X114.456 Y75.880 E24.13230
G1 X113.889 Y75.880 E24.15513
G1 X124.120 Y86.111 E24.73725
G1 X124.120 Y86.679 E24.76007
G1 X113.321 Y75.880 E25.37447
G1 X112.754 Y75.880 E25.39730
G1 X124.120 Y87.246 E26.04397
G1 X124.120 Y87.813 E26.06679
G1 X112.187 Y75.880 E26.74575
G1 X111.620 Y75.880 E26.76857
G1 X124.120 Y88.380 E27.47980
G1 X124.120 Y88.948 E27.50262
G1 X111.052 Y75.880 E28.24613
G1 X110.485 Y75.880 E28.26895
G1 X124.120 Y89.515 E29.04474
G1 X124.120 Y90.082 E29.06756
G1 X109.918 Y75.880 E29.87562
G1 X109.350 Y75.880 E29.89844
G1 X124.120 Y90.650 E30.73878
G1 X124.120 Y91.217 E30.76161
G1 X108.783 Y75.880 E31.63422
G1 X108.216 Y75.880 E31.65704
G1 X124.120 Y91.784 E32.56193
G1 X124.120 Y92.352 E32.58476
G1 X107.648 Y75.880 E33.52193
G1 X107.081 Y75.880 E33.54475
G1 X124.120 Y92.919 E34.51419
G1 X124.120 Y93.486 E34.53702
G1 X106.514 Y75.880 E35.53874
G1 X105.947 Y75.880 E35.56156
G1 X124.120 Y94.053 E36.59556
G1 X124.120 Y94.621 E36.61838
G1 X105.379 Y75.880 E37.68466
G1 X104.812 Y75.880 E37.70748
G1 X124.120 Y95.188 E38.80604
G1 X124.120 Y95.755 E38.82886
G1 X104.245 Y75.880 E39.95969
G1 X103.677 Y75.880 E39.98251
G1 X124.120 Y96.323 E41.14562
G1 X124.120 Y96.890 E41.16844
G1 X103.110 Y75.880 E42.36383
G1 X102.543 Y75.880 E42.38665
G1 X124.120 Y97.457 E43.61431
G1 X124.120 Y98.024 E43.63713
G1 X101.976 Y75.880 E44.89707
G1 X101.408 Y75.880 E44.91989
G1 X124.120 Y98.592 E46.21211
G1 X124.120 Y99.159 E46.23493
G1 X100.841 Y75.880 E47.55942
G1 X100.274 Y75.880 E47.58224
G1 X124.120 Y99.726 E48.93901
G1 X124.120 Y100.294 E48.96184
G1 X99.706 Y75.880 E50.35088
G1 X99.139 Y75.880 E50.37370
G1 X124.120 Y100.861 E51.79503
G1 X124.120 Y101.428 E51.81785
G1 X98.572 Y75.880 E53.27145
G1 X98.004 Y75.880 E53.29427
G1 X124.120 Y101.996 E54.78015
G1 X124.120 Y102.563 E54.80297
G1 X97.437 Y75.880 E56.32112
G1 X96.870 Y75.880 E56.34394
G1 X124.120 Y103.130 E57.89437
G1 X124.120 Y103.697 E57.91720
G1 X96.303 Y75.880 E59.49990
G1 X95.735 Y75.880 E59.52273
G1 X124.120 Y104.265 E61.13771
G1 X124.120 Y104.832 E61.16053
G1 X95.168 Y75.880 E62.80779
G1 X94.601 Y75.880 E62.83062
G1 X124.120 Y105.399 E64.51015
G1 X124.120 Y105.967 E64.53298
G1 X94.033 Y75.880 E66.24479
G1 X93.466 Y75.880 E66.26761
G1 X124.120 Y106.534 E68.01170
G1 X124.120 Y107.101 E68.03453
G1 X92.899 Y75.880 E69.81090
G1 X92.332 Y75.880 E69.83372
G1 X124.120 Y107.668 E71.64236
G1 X124.120 Y108.236 E71.66519
G1 X91.764 Y75.880 E73.50611
G1 X91.197 Y75.880 E73.52893
G1 X124.120 Y108.803 E75.40213
G1 X124.120 Y109.370 E75.42495
G1 X90.630 Y75.880 E77.33043
G1 X90.062 Y75.880 E77.35325
G1 X124.120 Y109.938 E79.29100
G1 X124.120 Y110.505 E79.31383
G1 X89.495 Y75.880 E81.28386
G1 X88.928 Y75.880 E81.30668
G1 X124.120 Y111.072 E83.30899
G1 X124.120 Y111.640 E83.33181
G1 X88.360 Y75.880 E85.36639
G1 X87.793 Y75.880 E85.38922
G1 X124.120 Y112.207 E87.45607
G1 X124.120 Y112.774 E87.47890
G1 X87.226 Y75.880 E89.57803
G1 X86.659 Y75.880 E89.60086
G1 X124.120 Y113.341 E91.73227
G1 X124.120 Y113.909 E91.75510
G1 X86.091 Y75.880 E93.91879
G1 X85.524 Y75.880 E93.94161
G1 X124.120 Y114.476 E96.13758
G1 X124.120 Y115.043 E96.16040
G1 X84.957 Y75.880 E98.38864
G1 X84.389 Y75.880 E98.41147
G1 X124.120 Y115.611 E100.67199
G1 X124.120 Y116.178 E100.69481
G1 X83.822 Y75.880 E102.98761
G1 X83.255 Y75.880 E103.01043
G1 X124.120 Y116.745 E105.33551
G1 X124.120 Y117.312 E105.35833
G1 X82.688 Y75.880 E107.71568
G1 X82.120 Y75.880 E107.73851
G1 X124.120 Y117.880 E110.12814
G1 X124.120 Y118.447 E110.15096
G1 X81.553 Y75.880 E112.57286
G1 X80.986 Y75.880 E112.59569
G1 X124.120 Y119.014 E115.04987
G1 X124.120 Y119.582 E115.07269
G1 X80.418 Y75.880 E117.55915
G1 X79.851 Y75.880 E117.58198
G1 X124.120 Y120.149 E120.10071
G1 X124.120 Y120.716 E120.12354
G1 X79.284 Y75.880 E122.67455
G1 X78.716 Y75.880 E122.69737
G1 X124.120 Y121.284 E125.28066
G1 X124.120 Y121.851 E125.30349
G1 X78.149 Y75.880 E127.91905
G1 X77.582 Y75.880 E127.94188
G1 X124.120 Y122.418 E130.58972
G1 X124.120 Y122.985 E130.61254
G1 X77.015 Y75.880 E133.29267
G1 X76.447 Y75.880 E133.31549
G1 X124.120 Y123.553 E136.02789
G1 X124.110 Y124.110 E136.05031
G1 X75.890 Y75.890 E138.79385
G1 X75.880 Y76.447 E138.81627
G1 X123.553 Y124.120 E141.52867
G1 X122.985 Y124.120 E141.55149
G1 X75.880 Y77.015 E144.23161
G1 X75.880 Y77.582 E144.25444
G1 X122.418 Y124.120 E146.90228
G1 X121.851 Y124.120 E146.92511
G1 X75.880 Y78.149 E149.54067
G1 X75.880 Y78.716 E149.56350
G1 X121.284 Y124.120 E152.14679
G1 X120.716 Y124.120 E152.16961
G1 X75.880 Y79.284 E154.72062
G1 X75.880 Y79.851 E154.74345
G1 X120.149 Y124.120 E157.26218
G1 X119.582 Y124.120 E157.28501
G1 X75.880 Y80.418 E159.77147
G1 X75.880 Y80.986 E159.79429
G1 X119.014 Y124.120 E162.24847
G1 X118.447 Y124.120 E162.27129
G1 X75.880 Y81.553 E164.69320
G1 X75.880 Y82.120 E164.71602
G1 X117.880 Y124.120 E167.10565
G1 X117.312 Y124.120 E167.12848
G1 X75.880 Y82.688 E169.48583
G1 X75.880 Y83.255 E169.50865
G1 X116.745 Y124.120 E171.83373
G1 X116.178 Y124.120 E171.85655
G1 X75.880 Y83.822 E174.14935
G1 X75.880 Y84.389 E174.17217
G1 X115.611 Y124.120 E176.43269
G1 X115.043 Y124.120 E176.45552
G1 X75.880 Y84.957 E178.68376
G1 X75.880 Y85.524 E178.70658
G1 X114.476 Y124.120 E180.90255
G1 X113.909 Y124.120 E180.92537
G1 X75.880 Y86.091 E183.08906
G1 X75.880 Y86.659 E183.11189
G1 X113.341 Y124.120 E185.24330
G1 X112.774 Y124.120 E185.26612
G1 X75.880 Y87.226 E187.36526
G1 X75.880 Y87.793 E187.38808
G1 X112.207 Y124.120 E189.45494
G1 X111.640 Y124.120 E189.47777
G1 X75.880 Y88.360 E191.51235
G1 X75.880 Y88.928 E191.53517
G1 X111.072 Y124.120 E193.53748
G1 X110.505 Y124.120 E193.56030
G1 X75.880 Y89.495 E195.53033
G1 X75.880 Y90.062 E195.55316
G1 X109.938 Y124.120 E197.49091
G1 X109.370 Y124.120 E197.51373
G1 X75.880 Y90.630 E199.41921
G1 X75.880 Y91.197 E199.44203
G1 X108.803 Y124.120 E201.31523
G1 X108.236 Y124.120 E201.33805
G1 X75.880 Y91.764 E203.17897
G1 X75.880 Y92.332 E203.20180
G1 X107.668 Y124.120 E205.01044
G1 X107.101 Y124.120 E205.03326
G1 X75.880 Y92.899 E206.80963
G1 X75.880 Y93.466 E206.83245
G1 X106.534 Y124.120 E208.57655
G1 X105.967 Y124.120 E208.59937
G1 X75.880 Y94.033 E210.31118
G1 X75.880 Y94.601 E210.33401
G1 X105.399 Y124.120 E212.01354
G1 X104.832 Y124.120 E212.03637
G1 X75.880 Y95.168 E213.68363
G1 X75.880 Y95.735 E213.70645
G1 X104.265 Y124.120 E215.32143
G1 X103.697 Y124.120 E215.34426
G1 X75.880 Y96.303 E216.92696
G1 X75.880 Y96.870 E216.94979
G1 X103.130 Y124.120 E218.50021
G1 X102.563 Y124.120 E218.52304
G1 X75.880 Y97.437 E220.04119
G1 X75.880 Y98.004 E220.06401
G1 X101.996 Y124.120 E221.54989
G1 X101.428 Y124.120 E221.57271
G1 X75.880 Y98.572 E223.02631
G1 X75.880 Y99.139 E223.04913
G1 X100.861 Y124.120 E224.47046
G1 X100.294 Y124.120 E224.49328
G1 X75.880 Y99.706 E225.88232
G1 X75.880 Y100.274 E225.90515
G1 X99.726 Y124.120 E227.26192
G1 X99.159 Y124.120 E227.28474
G1 X75.880 Y100.841 E228.60923
G1 X75.880 Y101.408 E228.63205
G1 X98.592 Y124.120 E229.92427
G1 X98.024 Y124.120 E229.94709
G1 X75.880 Y101.976 E231.20703
G1 X75.880 Y102.543 E231.22985
G1 X97.457 Y124.120 E232.45751
G1 X96.890 Y124.120 E232.48033
G1 X75.880 Y103.110 E233.67572
G1 X75.880 Y103.677 E233.69854
G1 X96.323 Y124.120 E234.86165
G1 X95.755 Y124.120 E234.88447
G1 X75.880 Y104.245 E236.01530
G1 X75.880 Y104.812 E236.03812
G1 X95.188 Y124.120 E237.13668
G1 X94.621 Y124.120 E237.15950
G1 X75.880 Y105.379 E238.22578
G1 X75.880 Y105.947 E238.24860
G1 X94.053 Y124.120 E239.28260
G1 X93.486 Y124.120 E239.30542
G1 X75.880 Y106.514 E240.30714
G1 X75.880 Y107.081 E240.32997
G1 X92.919 Y124.120 E241.29941
G1 X92.352 Y124.120 E241.32223
G1 X75.880 Y107.648 E242.25940
G1 X75.880 Y108.216 E242.28223
G1 X91.784 Y124.120 E243.18712
G1 X91.217 Y124.120 E243.20994
G1 X75.880 Y108.783 E244.08255
G1 X75.880 Y109.350 E244.10538
G1 X90.650 Y124.120 E244.94572
G1 X90.082 Y124.120 E244.96854
G1 X75.880 Y109.918 E245.77660
G1 X75.880 Y110.485 E245.79942
G1 X89.515 Y124.120 E246.57521
G1 X88.948 Y124.120 E246.59803
G1 X75.880 Y111.052 E247.34154
G1 X75.880 Y111.620 E247.36436
G1 X88.380 Y124.120 E248.07559
G1 X87.813 Y124.120 E248.09841
G1 X75.880 Y112.187 E248.77737
G1 X75.880 Y112.754 E248.80019
G1 X87.246 Y124.120 E249.44686
G1 X86.679 Y124.120 E249.46969
G1 X75.880 Y113.321 E250.08409
G1 X75.880 Y113.889 E250.10691
G1 X86.111 Y124.120 E250.68903
G1 X85.544 Y124.120 E250.71186
G1 X75.880 Y114.456 E251.26170
G1 X75.880 Y115.023 E251.28452
G1 X84.977 Y124.120 E251.80209
G1 X84.409 Y124.120 E251.82492
G1 X75.880 Y115.591 E252.31021
G1 X75.880 Y116.158 E252.33303
G1 X83.842 Y124.120 E252.78605
G1 X83.275 Y124.120 E252.80887
G1 X75.880 Y116.725 E253.22961
G1 X75.880 Y117.292 E253.25243
G1 X82.708 Y124.120 E253.64089
G1 X82.140 Y124.120 E253.66371
G1 X75.880 Y117.860 E254.01990
G1 X75.880 Y118.427 E254.04272
G1 X81.573 Y124.120 E254.36663
G1 X81.006 Y124.120 E254.38945
G1 X75.880 Y118.994 E254.68108
G1 X75.880 Y119.562 E254.70390
G1 X80.438 Y124.120 E254.96326
G1 X79.871 Y124.120 E254.98608
G1 X75.880 Y120.129 E255.21316
G1 X75.880 Y120.696 E255.23598
G1 X79.304 Y124.120 E255.43078
G1 X78.736 Y124.120 E255.45360
G1 X75.880 Y121.264 E255.61613
G1 X75.880 Y121.831 E255.63895
G1 X78.169 Y124.120 E255.76919
G1 X77.602 Y124.120 E255.79202
G1 X75.880 Y122.398 E255.88999
G1 X75.880 Y122.965 E255.91281
G1 X77.035 Y124.120 E255.97850
G1 X76.467 Y124.120 E256.00132
G1 X75.880 Y123.533 E256.03474
G1 X75.880 Y124.100 E256.05756
G1 X75.900 Y124.120 E256.05870
G1 Z0.400 F7800.000
G1 X75.651 Y124.349 F7800.000
G1 X75.651 Y75.651 E258.16575 F2400
G1 X124.349 Y75.651 E260.27280
G1 X124.349 Y124.349 E262.37985
G1 X75.716 Y124.349 E264.48409
G1 X75.220 Y124.780 F7800.000
G1 X75.220 Y75.220 E266.62848 F1800
G1 X124.780 Y75.220 E268.77286
G1 X124.780 Y124.780 E270.91724
G1 X75.285 Y124.780 E273.05882
G1 X75.436 Y124.406 F7800.000
G1 X75.954 Y76.586 F7800.000
G1 X76.586 Y75.954 E273.09765 F4200
G1 X77.199 Y75.954 E273.12424
G1 X75.954 Y77.199 E273.20068
G1 X75.954 Y77.811 E273.22727
G1 X77.811 Y75.954 E273.34132
G1 X78.423 Y75.954 E273.36792
G1 X75.954 Y78.423 E273.51958
G1 X75.954 Y79.036 E273.54617
G1 X79.036 Y75.954 E273.73544
G1 X79.648 Y75.954 E273.76204
G1 X75.954 Y79.648 E273.98892
G1 X75.954 Y80.261 E274.01552
G1 X80.261 Y75.954 E274.28001
G1 X80.873 Y75.954 E274.30660
G1 X75.954 Y80.873 E274.60871
G1 X75.954 Y81.485 E274.63530
G1 X81.485 Y75.954 E274.97502
G1 X82.098 Y75.954 E275.00161
G1 X75.954 Y82.098 E275.37894
G1 X75.954 Y82.710 E275.40553
G1 X82.710 Y75.954 E275.82047
G1 X83.323 Y75.954 E275.84707
G1 X75.954 Y83.323 E276.29962
G1 X75.954 Y83.935 E276.32621
G1 X83.935 Y75.954 E276.81637
G1 X84.547 Y75.954 E276.84296
G1 X75.954 Y84.547 E277.37073
G1 X75.954 Y85.160 E277.39733
G1 X85.160 Y75.954 E277.96271
